web/Alivewater/Alivewater/img/10/First.svg

<svg width="84" height="90" viewBox="0 0 84 90" fill="none" xmlns="http://www.w3.org/2000/svg">
<path fill-rule="evenodd" clip-rule="evenodd" d="M0.836026 21.8585C2.50943 19.9202 4.56125 18.4361 7.06248 17.5011C13.186 15.2123 21.0859 16.759 27.3819 17.7813C35.3542 19.0752 43.0304 20.1385 51.0978 18.6817C55.3654 17.9096 59.7737 17.6334 63.9043 16.303L65.8787 15.6677L83.7622 50.1092L80.9372 50.7099C71.9206 52.6286 63.7296 54.1023 54.5383 52.5882C40.9303 50.3444 31.3868 51.5015 17.6077 53.6534L15.8747 53.9232H15.8605L0.00109863 23.0202V22.8254L0.836026 21.8585ZM2.66349 23.187C12.2928 12.0362 30.5122 24.5819 51.5465 20.7802C55.822 20.0082 60.2997 19.7319 64.6753 18.3227L80.409 48.6269C46.9196 55.7539 61.8148 44.5797 17.2151 51.5445L2.66278 23.1863L2.66349 23.187Z" fill="#273453"/>
<path d="M0.75186 21.7977C1.59318 20.8231 2.53176 19.9611 3.57329 19.2262C4.61624 18.4906 5.76284 17.8808 7.02162 17.4104C12.7554 15.2675 20.0205 16.4676 26.0901 17.4697L27.3992 17.6847C31.3815 18.331 35.2913 18.92 39.2103 19.1649C43.1258 19.4099 47.0527 19.3115 51.0768 18.5851C52.4364 18.3388 53.8265 18.1414 55.216 17.944C58.1418 17.5283 61.0711 17.1113 63.8684 16.2103L65.933 15.5464C71.9173 27.094 77.9187 38.6337 83.9137 50.1761L80.9595 50.8048C76.4491 51.7645 72.1431 52.6134 67.813 53.033C63.4807 53.4526 59.1251 53.4422 54.5181 52.6838C47.7236 51.5632 41.9423 51.2922 36.1411 51.5697C30.3378 51.8473 24.5097 52.674 17.6243 53.7497L16.5104 53.923H15.7422C10.5083 43.6928 5.2545 33.4698 0 23.248V22.6682L0.75186 21.7971V21.7977ZM3.7025 19.3806C2.67588 20.1057 1.75008 20.956 0.917994 21.9189L0.0617676 22.9105L15.9225 53.8162L17.5889 53.5568C24.4813 52.4805 30.3165 51.6524 36.1305 51.3742C41.9466 51.096 47.7428 51.3684 54.5557 52.4916C59.14 53.2467 63.4765 53.2571 67.791 52.8389C72.1076 52.4206 76.4065 51.573 80.912 50.6139L83.6077 50.0406L65.8229 15.7881L63.9387 16.3947C61.1251 17.3009 58.1851 17.7192 55.2486 18.1362C53.872 18.3316 52.4946 18.5278 51.1173 18.7766C47.074 19.5063 43.1287 19.6054 39.1961 19.3591C35.2679 19.1135 31.3517 18.5232 27.363 17.8762L26.0531 17.6606C20.012 16.6631 12.7795 15.4682 7.10185 17.5902C5.86011 18.0541 4.72983 18.6548 3.70321 19.3793L3.7025 19.3806ZM2.57933 23.1269C8.11001 16.7217 16.4231 18.0736 26.4635 19.7064C33.9956 20.9312 42.5053 22.3144 51.5255 20.6849C52.8581 20.4445 54.227 20.2497 55.6057 20.0536C58.6004 19.6282 61.6462 19.1949 64.6394 18.2307L64.7296 18.202C69.9848 28.3749 75.2826 38.5321 80.5612 48.6952L80.432 48.7225C64.1992 52.1769 59.3153 51.3365 53.5305 50.3416C47.3871 49.2842 40.2228 48.0515 17.2324 51.6414L17.1536 51.6537C12.2626 42.1695 7.41708 32.6645 2.53886 23.1744L2.57933 23.1269ZM26.4273 19.8986C16.4792 18.2808 8.23852 16.942 2.78735 23.2011L17.2765 51.4368C40.2405 47.856 47.4162 49.0907 53.5695 50.1494C59.3153 51.1377 64.1694 51.973 80.2553 48.559L64.6188 18.4431C61.6384 19.3923 58.6132 19.823 55.6377 20.2458C54.2717 20.44 52.9164 20.6328 51.566 20.8765C42.5082 22.5131 33.9771 21.126 26.4273 19.8986Z" fill="#273453"/>
<rect x="13.4261" y="45.5871" width="67.131" height="2.46417" fill="#273453"/>
<rect x="10.0696" y="39.4267" width="67.131" height="2.46417" fill="#273453"/>
<rect x="7.3844" y="33.2663" width="67.131" height="2.46417" fill="#273453"/>
<rect x="4.6991" y="27.1059" width="67.131" height="2.46417" fill="#273453"/>
<rect x="1.67822" y="20.9454" width="67.131" height="2.46417" fill="#273453"/>
<path fill-rule="evenodd" clip-rule="evenodd" d="M55.0739 19.803L54.8221 18.9926C54.288 17.2759 52.6283 14.798 51.4785 13.0878C50.2871 11.316 47.9945 8.38207 47.3553 7.45052C45.0815 4.13695 44.0846 1.59233 43.2798 0.387393C43.1081 0.130211 43.1096 0.14511 42.9512 0C41.6257 4.24383 37.4907 9.09921 35.0937 12.4814C32.2717 16.4629 28.7351 21.3785 32.045 26.8435C38.1456 36.9164 57.761 32.7444 55.0739 19.8024V19.803Z" fill="#294D8B"/>
<path fill-rule="evenodd" clip-rule="evenodd" d="M41.5584 6.19945C40.918 9.65382 38.8392 12.9805 37.6749 16.2791C35.7416 21.7578 38.0966 23.5892 36.7846 24.9548C35.2624 26.5393 32.1122 24.517 33.6763 19.3869C34.4417 16.8766 37.3199 13.0235 38.9308 10.637C39.8907 9.216 40.7164 7.4002 41.5584 6.19945Z" fill="white"/>
<path d="M30.4961 67.3945H26.3828V75H25.252V66.4688H30.4961V67.3945ZM35.8633 71.9004C35.8633 72.8652 35.6426 73.6426 35.2012 74.2324C34.7598 74.8223 34.1621 75.1172 33.4082 75.1172C32.6387 75.1172 32.0332 74.873 31.5918 74.3848V77.4375H30.5078V68.6602H31.498L31.5508 69.3633C31.9922 68.8164 32.6055 68.543 33.3906 68.543C34.1523 68.543 34.7539 68.8301 35.1953 69.4043C35.6406 69.9785 35.8633 70.7773 35.8633 71.8008V71.9004ZM34.7793 71.7773C34.7793 71.0625 34.627 70.498 34.3223 70.084C34.0176 69.6699 33.5996 69.4629 33.0684 69.4629C32.4121 69.4629 31.9199 69.7539 31.5918 70.3359V73.3652C31.916 73.9434 32.4121 74.2324 33.0801 74.2324C33.5996 74.2324 34.0117 74.0273 34.3164 73.6172C34.625 73.2031 34.7793 72.5898 34.7793 71.7773ZM39.25 73.4121L40.7266 68.6602H41.8867L39.3379 75.9785C38.9434 77.0332 38.3164 77.5605 37.457 77.5605L37.252 77.543L36.8477 77.4668V76.5879L37.1406 76.6113C37.5078 76.6113 37.793 76.5371 37.9961 76.3887C38.2031 76.2402 38.373 75.9688 38.5059 75.5742L38.7461 74.9297L36.4844 68.6602H37.668L39.25 73.4121ZM45.6426 69.0234C46.4395 69.0234 47.0762 69.291 47.5527 69.8262C48.0332 70.3574 48.2734 71.0586 48.2734 71.9297V72.0293C48.2734 72.627 48.1582 73.1621 47.9277 73.6348C47.6973 74.1035 47.3652 74.4688 46.9316 74.7305C46.502 74.9883 46.0059 75.1172 45.4434 75.1172C44.5918 75.1172 43.9062 74.834 43.3867 74.2676C42.8672 73.6973 42.6074 72.9336 42.6074 71.9766V71.4492C42.6074 70.1172 42.8535 69.0586 43.3457 68.2734C43.8418 67.4883 44.5723 67.0098 45.5371 66.8379C46.084 66.7402 46.4531 66.6211 46.6445 66.4805C46.8359 66.3398 46.9316 66.1465 46.9316 65.9004H47.8223C47.8223 66.3887 47.7109 66.7695 47.4883 67.043C47.2695 67.3164 46.918 67.5098 46.4336 67.623L45.625 67.8047C44.9805 67.957 44.4961 68.2148 44.1719 68.5781C43.8516 68.9375 43.6426 69.418 43.5449 70.0195C44.1191 69.3555 44.8184 69.0234 45.6426 69.0234ZM45.4316 69.9141C44.9004 69.9141 44.4785 70.0938 44.166 70.4531C43.8535 70.8086 43.6973 71.3027 43.6973 71.9355V72.0293C43.6973 72.709 43.8535 73.248 44.166 73.6465C44.4824 74.041 44.9082 74.2383 45.4434 74.2383C45.9824 74.2383 46.4082 74.0391 46.7207 73.6406C47.0332 73.2422 47.1895 72.6602 47.1895 71.8945C47.1895 71.2969 47.0312 70.8184 46.7148 70.459C46.4023 70.0957 45.9746 69.9141 45.4316 69.9141ZM53.4062 75C53.3438 74.875 53.293 74.6523 53.2539 74.332C52.75 74.8555 52.1484 75.1172 51.4492 75.1172C50.8242 75.1172 50.3105 74.9414 49.9082 74.5898C49.5098 74.2344 49.3105 73.7852 49.3105 73.2422C49.3105 72.582 49.5605 72.0703 50.0605 71.707C50.5645 71.3398 51.2715 71.1562 52.1816 71.1562H53.2363V70.6582C53.2363 70.2793 53.123 69.9785 52.8965 69.7559C52.6699 69.5293 52.3359 69.416 51.8945 69.416C51.5078 69.416 51.1836 69.5137 50.9219 69.709C50.6602 69.9043 50.5293 70.1406 50.5293 70.418H49.4395C49.4395 70.1016 49.5508 69.7969 49.7734 69.5039C50 69.207 50.3047 68.9727 50.6875 68.8008C51.0742 68.6289 51.498 68.543 51.959 68.543C52.6895 68.543 53.2617 68.7266 53.6758 69.0938C54.0898 69.457 54.3047 69.959 54.3203 70.5996V73.5176C54.3203 74.0996 54.3945 74.5625 54.543 74.9062V75H53.4062ZM51.6074 74.1738C51.9473 74.1738 52.2695 74.0859 52.5742 73.9102C52.8789 73.7344 53.0996 73.5059 53.2363 73.2246V71.9238H52.3867C51.0586 71.9238 50.3945 72.3125 50.3945 73.0898C50.3945 73.4297 50.5078 73.6953 50.7344 73.8867C50.9609 74.0781 51.252 74.1738 51.6074 74.1738ZM60.8652 68.6602V75H59.7754V72.5332H58.1406L56.6465 75H55.4746L57.0684 72.3691C56.6621 72.2207 56.3496 71.9922 56.1309 71.6836C55.916 71.3711 55.8086 71.0078 55.8086 70.5938C55.8086 70.0156 56.0254 69.5508 56.459 69.1992C56.8926 68.8438 57.4727 68.6641 58.1992 68.6602H60.8652ZM56.8984 70.6055C56.8984 70.9141 57.0039 71.1641 57.2148 71.3555C57.4258 71.543 57.7051 71.6387 58.0527 71.6426H59.7754V69.5391H58.2168C57.8145 69.5391 57.4941 69.6387 57.2559 69.8379C57.0176 70.0332 56.8984 70.2891 56.8984 70.6055ZM20.8574 85.7715C20.8574 85.1504 20.9785 84.5918 21.2207 84.0957C21.4668 83.5996 21.8066 83.2168 22.2402 82.9473C22.6777 82.6777 23.1758 82.543 23.7344 82.543C24.5977 82.543 25.2949 82.8418 25.8262 83.4395C26.3613 84.0371 26.6289 84.832 26.6289 85.8242V85.9004C26.6289 86.5176 26.5098 87.0723 26.2715 87.5645C26.0371 88.0527 25.6992 88.4336 25.2578 88.707C24.8203 88.9805 24.3164 89.1172 23.7461 89.1172C22.8867 89.1172 22.1895 88.8184 21.6543 88.2207C21.123 87.623 20.8574 86.832 20.8574 85.8477V85.7715ZM21.9473 85.9004C21.9473 86.6035 22.1094 87.168 22.4336 87.5938C22.7617 88.0195 23.1992 88.2324 23.7461 88.2324C24.2969 88.2324 24.7344 88.0176 25.0586 87.5879C25.3828 87.1543 25.5449 86.5488 25.5449 85.7715C25.5449 85.0762 25.3789 84.5137 25.0469 84.084C24.7188 83.6504 24.2812 83.4336 23.7344 83.4336C23.1992 83.4336 22.7676 83.6465 22.4395 84.0723C22.1113 84.498 21.9473 85.1074 21.9473 85.9004ZM32.7754 89H31.6855V86.7031C31.209 86.8281 30.7207 86.8906 30.2207 86.8906C29.4277 86.8906 28.8223 86.6875 28.4043 86.2812C27.9902 85.875 27.7793 85.2969 27.7715 84.5469V82.6543H28.8555V84.582C28.875 85.5273 29.3301 86 30.2207 86C30.7207 86 31.209 85.9375 31.6855 85.8125V82.6602H32.7754V89ZM38.6172 82.6602H39.7012V89H38.6172V84.377L35.6934 89H34.6094V82.6602H35.6934V87.2891L38.6172 82.6602ZM43.9844 88.2324C44.3711 88.2324 44.709 88.1152 44.998 87.8809C45.2871 87.6465 45.4473 87.3535 45.4785 87.002H46.5039C46.4844 87.3652 46.3594 87.7109 46.1289 88.0391C45.8984 88.3672 45.5898 88.6289 45.2031 88.8242C44.8203 89.0195 44.4141 89.1172 43.9844 89.1172C43.1211 89.1172 42.4336 88.8301 41.9219 88.2559C41.4141 87.6777 41.1602 86.8887 41.1602 85.8887V85.707C41.1602 85.0898 41.2734 84.541 41.5 84.0605C41.7266 83.5801 42.0508 83.207 42.4727 82.9414C42.8984 82.6758 43.4004 82.543 43.9785 82.543C44.6895 82.543 45.2793 82.7559 45.748 83.1816C46.2207 83.6074 46.4727 84.1602 46.5039 84.8398H45.4785C45.4473 84.4297 45.291 84.0938 45.0098 83.832C44.7324 83.5664 44.3887 83.4336 43.9785 83.4336C43.4277 83.4336 43 83.6328 42.6953 84.0312C42.3945 84.4258 42.2441 84.998 42.2441 85.748V85.9531C42.2441 86.6836 42.3945 87.2461 42.6953 87.6406C42.9961 88.0352 43.4258 88.2324 43.9844 88.2324ZM52.4336 83.5391H50.3066V89H49.2227V83.5391H47.1367V82.6602H52.4336V83.5391ZM55.4629 86.2988H54.6719V89H53.582V82.6602H54.6719V85.3438H55.3809L57.5137 82.6602H58.8262L56.3184 85.707L59.0371 89H57.6602L55.4629 86.2988ZM63.8828 89C63.8203 88.875 63.7695 88.6523 63.7305 88.332C63.2266 88.8555 62.625 89.1172 61.9258 89.1172C61.3008 89.1172 60.7871 88.9414 60.3848 88.5898C59.9863 88.2344 59.7871 87.7852 59.7871 87.2422C59.7871 86.582 60.0371 86.0703 60.5371 85.707C61.041 85.3398 61.748 85.1562 62.6582 85.1562H63.7129V84.6582C63.7129 84.2793 63.5996 83.9785 63.373 83.7559C63.1465 83.5293 62.8125 83.416 62.3711 83.416C61.9844 83.416 61.6602 83.5137 61.3984 83.709C61.1367 83.9043 61.0059 84.1406 61.0059 84.418H59.916C59.916 84.1016 60.0273 83.7969 60.25 83.5039C60.4766 83.207 60.7812 82.9727 61.1641 82.8008C61.5508 82.6289 61.9746 82.543 62.4355 82.543C63.166 82.543 63.7383 82.7266 64.1523 83.0938C64.5664 83.457 64.7812 83.959 64.7969 84.5996V87.5176C64.7969 88.0996 64.8711 88.5625 65.0195 88.9062V89H63.8828ZM62.084 88.1738C62.4238 88.1738 62.7461 88.0859 63.0508 87.9102C63.3555 87.7344 63.5762 87.5059 63.7129 87.2246V85.9238H62.8633C61.5352 85.9238 60.8711 86.3125 60.8711 87.0898C60.8711 87.4297 60.9844 87.6953 61.2109 87.8867C61.4375 88.0781 61.7285 88.1738 62.084 88.1738Z" fill="#273453"/>
</svg>

<svg width="84" height="90" fill="none" xmlns="http://www.w3.org/2000/svg"><path fill-rule="evenodd" clip-rule="evenodd" d="M.836 21.858c1.673-1.938 3.725-3.422 6.226-4.357 6.124-2.289 14.024-.742 20.32.28 7.972 1.294 15.648 2.358 23.716.9 4.267-.771 8.676-1.048 12.806-2.378l1.975-.635 17.883 34.441-2.825.6c-9.016 1.92-17.207 3.393-26.399 1.88-13.608-2.245-23.151-1.087-36.93 1.064l-1.733.27h-.014L0 23.02v-.195l.835-.966zm1.827 1.329c9.63-11.15 27.85 1.395 48.883-2.407 4.276-.772 8.754-1.048 13.13-2.457l15.733 30.304c-33.49 7.127-18.594-4.047-63.194 2.917L2.663 23.186v.001z" fill="#273453"/><path d="M.752 21.798a15.627 15.627 0 012.821-2.572 15.163 15.163 0 013.449-1.816c5.733-2.143 12.998-.942 19.068.06l1.31.215c3.982.646 7.891 1.235 11.81 1.48 3.916.245 7.843.146 11.867-.58 1.36-.246 2.75-.444 4.139-.641 2.926-.416 5.855-.833 8.652-1.734l2.065-.664c5.984 11.548 11.986 23.088 17.98 34.63l-2.953.629c-4.51.96-8.817 1.808-13.147 2.228-4.332.42-8.688.41-13.295-.35-6.794-1.12-12.576-1.39-18.377-1.113-5.803.277-11.631 1.104-18.517 2.18l-1.114.173h-.768A17879.457 17879.457 0 000 23.248v-.58l.752-.87zm2.95-2.417a15.482 15.482 0 00-2.784 2.538l-.856.991 15.86 30.906 1.667-.26c6.892-1.075 12.728-1.904 18.541-2.182 5.817-.278 11.613-.006 18.426 1.118 4.584.755 8.92.765 13.235.347 4.317-.418 8.615-1.266 13.121-2.225l2.696-.573-17.785-34.253-1.884.607c-2.814.906-5.754 1.324-8.69 1.741-1.377.196-2.754.392-4.132.64-4.043.73-7.988.83-11.92.583-3.93-.246-7.845-.836-11.834-1.483l-1.31-.215c-6.041-.998-13.274-2.193-18.951-.07a14.924 14.924 0 00-3.399 1.788v.002zM2.58 23.127c5.531-6.405 13.844-5.053 23.885-3.42 7.532 1.224 16.041 2.607 25.062.978a112.14 112.14 0 014.08-.631c2.994-.426 6.04-.86 9.033-1.823l.09-.029c5.256 10.173 10.554 20.33 15.832 30.493l-.129.027c-16.233 3.455-21.117 2.614-26.901 1.62-6.144-1.058-13.308-2.29-36.299 1.3l-.078.012c-4.891-9.485-9.737-18.99-14.615-28.48l.04-.047zm23.848-3.228C16.48 18.28 8.24 16.942 2.787 23.2l14.49 28.236c22.963-3.581 30.14-2.346 36.292-1.288 5.746.989 10.6 1.824 26.686-1.59L64.62 18.443c-2.98.95-6.006 1.38-8.981 1.803a111.26 111.26 0 00-4.072.63c-9.058 1.637-17.589.25-25.139-.977z" fill="#273453"/><path fill="#273453" d="M13.426 45.587h67.131v2.464H13.426zm-3.356-6.16h67.131v2.464H10.07zm-2.686-6.161h67.131v2.464H7.384zm-2.685-6.16H71.83v2.464H4.699zm-3.021-6.161h67.131v2.464H1.678z"/><path fill-rule="evenodd" clip-rule="evenodd" d="M55.074 19.803l-.252-.81c-.534-1.717-2.194-4.195-3.344-5.905-1.19-1.772-3.483-4.706-4.123-5.637-2.273-3.314-3.27-5.859-4.075-7.064-.172-.257-.17-.242-.33-.387-1.325 4.244-5.46 9.1-7.857 12.481-2.822 3.982-6.359 8.897-3.049 14.362 6.1 10.073 25.716 5.901 23.029-7.04z" fill="#294D8B"/><path fill-rule="evenodd" clip-rule="evenodd" d="M41.558 6.2c-.64 3.454-2.719 6.78-3.883 10.08-1.933 5.478.422 7.31-.89 8.675-1.523 1.584-4.673-.438-3.109-5.568.766-2.51 3.644-6.364 5.255-8.75.96-1.421 1.785-3.237 2.627-4.438z" fill="#fff"/><path d="M30.496 67.394h-4.113V75h-1.131v-8.531h5.244v.925zm5.367 4.506c0 .965-.22 1.743-.662 2.332-.441.59-1.039.885-1.793.885-.77 0-1.375-.244-1.816-.732v3.052h-1.084V68.66h.99l.053.703c.441-.547 1.055-.82 1.84-.82.761 0 1.363.287 1.804.861.446.575.668 1.373.668 2.397v.1zm-1.084-.123c0-.715-.152-1.279-.457-1.693-.304-.414-.722-.621-1.254-.621-.656 0-1.148.29-1.476.873v3.03c.324.577.82.866 1.488.866.52 0 .932-.205 1.236-.615.309-.414.463-1.027.463-1.84zm4.471 1.635l1.477-4.752h1.16l-2.55 7.319c-.394 1.054-1.02 1.582-1.88 1.582l-.205-.018-.404-.076v-.88l.293.024c.367 0 .652-.074.855-.222.207-.149.377-.42.51-.815l.24-.644-2.262-6.27h1.184l1.582 4.752zm6.393-4.389c.797 0 1.433.268 1.91.803.48.531.72 1.233.72 2.104v.1c0 .597-.115 1.132-.345 1.605-.23.468-.563.834-.996 1.096-.43.257-.926.386-1.489.386-.851 0-1.537-.283-2.056-.85-.52-.57-.78-1.333-.78-2.29v-.528c0-1.332.246-2.39.739-3.176.496-.785 1.226-1.263 2.191-1.435.547-.098.916-.217 1.108-.357a.68.68 0 00.287-.58h.89c0 .488-.111.868-.334 1.142-.218.273-.57.467-1.054.58l-.809.182c-.645.152-1.129.41-1.453.773-.32.36-.53.84-.627 1.441.574-.663 1.273-.996 2.098-.996zm-.211.891c-.532 0-.954.18-1.266.54-.313.355-.469.849-.469 1.482v.093c0 .68.156 1.219.469 1.618.316.394.742.591 1.277.591.54 0 .965-.199 1.278-.597.312-.399.469-.98.469-1.747 0-.597-.159-1.076-.475-1.435-.313-.363-.74-.545-1.283-.545zM53.406 75c-.062-.125-.113-.348-.152-.668-.504.524-1.106.785-1.805.785-.625 0-1.139-.176-1.54-.527a1.728 1.728 0 01-.599-1.348c0-.66.25-1.172.75-1.535.505-.367 1.212-.55 2.122-.55h1.054v-.499c0-.379-.113-.68-.34-.902-.226-.227-.56-.34-1.002-.34-.386 0-.71.098-.972.293-.262.195-.393.432-.393.709h-1.09c0-.316.112-.621.334-.914.227-.297.532-.531.914-.703a3.097 3.097 0 011.272-.258c.73 0 1.303.184 1.717.55.414.364.629.866.644 1.507v2.918c0 .582.075 1.044.223 1.388V75h-1.137zm-1.799-.826c.34 0 .663-.088.967-.264a1.59 1.59 0 00.662-.685v-1.301h-.85c-1.327 0-1.992.388-1.992 1.166 0 .34.114.605.34.797.227.191.518.287.873.287zm9.258-5.514V75h-1.09v-2.467h-1.634L56.647 75h-1.172l1.593-2.63c-.406-.15-.718-.378-.937-.686a1.876 1.876 0 01-.322-1.09c0-.578.216-1.043.65-1.395.434-.355 1.014-.535 1.74-.539h2.666zm-3.967 1.946c0 .308.106.558.317.75.21.187.49.283.838.287h1.722v-2.104h-1.558c-.402 0-.723.1-.961.299a.945.945 0 00-.358.768zm-36.04 15.166c0-.622.12-1.18.363-1.676a2.758 2.758 0 011.02-1.149 2.79 2.79 0 011.493-.404c.864 0 1.56.299 2.092.896.535.598.803 1.393.803 2.385v.076a3.77 3.77 0 01-.358 1.664 2.67 2.67 0 01-1.013 1.143c-.438.274-.942.41-1.512.41-.86 0-1.556-.299-2.092-.896-.531-.598-.797-1.389-.797-2.373v-.076zm1.09.128c0 .703.161 1.268.486 1.694.328.425.765.638 1.312.638.55 0 .988-.214 1.313-.644.324-.434.486-1.04.486-1.816 0-.696-.166-1.258-.498-1.688a1.564 1.564 0 00-1.313-.65 1.56 1.56 0 00-1.295.638c-.328.426-.492 1.035-.492 1.828zM32.774 89h-1.09v-2.297a5.749 5.749 0 01-1.464.188c-.793 0-1.399-.204-1.817-.61-.414-.406-.625-.984-.633-1.734v-1.893h1.084v1.928c.02.945.475 1.418 1.366 1.418.5 0 .988-.063 1.465-.188V82.66h1.09V89zm5.842-6.34H39.7V89h-1.084v-4.623L35.693 89H34.61v-6.34h1.084v4.63l2.924-4.63zm5.367 5.572c.387 0 .725-.117 1.014-.351.29-.234.45-.528.48-.879h1.026c-.02.363-.145.709-.375 1.037-.23.328-.54.59-.926.785a2.645 2.645 0 01-1.219.293c-.863 0-1.55-.287-2.062-.861-.508-.578-.762-1.367-.762-2.367v-.182c0-.617.113-1.166.34-1.646.227-.48.55-.854.973-1.12.425-.265.927-.398 1.505-.398.712 0 1.301.213 1.77.639.473.425.725.978.756 1.658h-1.026a1.477 1.477 0 00-.468-1.008 1.433 1.433 0 00-1.032-.398c-.55 0-.978.199-1.283.597-.3.395-.45.967-.45 1.717v.205c0 .73.15 1.293.45 1.688.301.394.73.591 1.29.591zm8.45-4.693h-2.127V89h-1.084v-5.46h-2.086v-.88h5.297v.88zm3.029 2.76h-.791V89h-1.09v-6.34h1.09v2.684h.709l2.133-2.684h1.312l-2.508 3.047L59.038 89H57.66l-2.197-2.701zM63.883 89c-.063-.125-.114-.348-.153-.668-.503.524-1.105.785-1.804.785-.625 0-1.139-.176-1.541-.527a1.728 1.728 0 01-.598-1.348c0-.66.25-1.172.75-1.535.504-.367 1.211-.55 2.121-.55h1.055v-.499c0-.379-.113-.68-.34-.902-.226-.227-.56-.34-1.002-.34-.387 0-.71.098-.973.293-.261.195-.392.432-.392.709h-1.09c0-.316.111-.621.334-.914.227-.297.531-.531.914-.703.387-.172.81-.258 1.271-.258.731 0 1.303.184 1.717.55.414.364.63.866.645 1.507v2.918c0 .582.074 1.044.222 1.388V89h-1.136zm-1.799-.826c.34 0 .662-.088.967-.264.304-.176.525-.404.662-.685v-1.301h-.85c-1.328 0-1.992.388-1.992 1.166 0 .34.113.605.34.797.227.191.517.287.873.287z" fill="#273453"/></svg>
